X:53
T:In my Cottage near a wood
S:John Moore's Book 2
Z:Transcribed Steve Mansfield 04/2021
%%VWML: Moore2-4494-p40-0
F:http://www.vwml.org/record/Moore2/4494/p40
M:C
L:1/4
K:D
F>G | AABB | Azde | f(g/>e/) dc | {e}dzF>G | 
AABB | Azde | f(g/>e/) dc | {e}d z || gf | 
efgf | ezgf | edcB | (A>G){G}(F>G) | 
AABB | Azde | fg/>e/ dc | d2 |]

